X: 1410
T: An Tithe Ceann Tuí
R: reel
M: 4/4
K: Edorian
|:E2BE dEBE|ABAG FEDF|E2BE dEBE|dBAd eEED|
E2BE dEBE|ABAG FDFA|dcde fdec|1 dBAG FEDF:|2 dBAG FDDd||
|:Beed efga|bee2 fedB|dcde dAA2|eAA2 fedc|
Beed efga|bee2 fedB|d2cd e2de|1 : fdec dBAd:|2 fdec dBAF|E4||

